packages/synapse-interface/assets/icons/nusd.svg

<svg fill="none" height="48" viewBox="0 0 48 48" width="48" xmlns="http://www.w3.org/2000/svg" xmlns:xlink="http://www.w3.org/1999/xlink"><linearGradient id="a" gradientUnits="userSpaceOnUse" x1="0" x2="48" y1="0" y2="48"><stop offset="0" stop-color="#f0f"/><stop offset="1" stop-color="#7344f3"/></linearGradient><clipPath id="b"><path d="m0 0h48v48h-48z"/></clipPath><g clip-path="url(#b)"><circle cx="24" cy="24" fill="url(#a)" r="24"/><circle cx="24" cy="24" fill="#101018" r="22"/><path d="m31.5683 28.1244c0-4.0663-2.4398-5.4605-7.3194-6.0413-3.4855-.4649-4.1826-1.3942-4.1826-3.021 0-1.6267 1.1619-2.672 3.4855-2.672 2.0912 0 3.2532.697 3.834 2.4398.1162.3485.4648.5808.8133.5808h1.8588c.4648 0 .8133-.3486.8133-.8131v-.1163c-.4648-2.5561-2.5561-4.5311-5.2282-4.7633v-2.7884c0-.4648-.3485-.8134-.9293-.92966h-1.7428c-.4648 0-.8133.34856-.9296.92966v2.6721c-3.4855.4648-5.6927 2.7884-5.6927 5.693 0 3.834 2.3235 5.3442 7.2032 5.9253 3.2532.5808 4.2988 1.2779 4.2988 3.1369s-1.6267 3.1369-3.834 3.1369c-3.0209 0-4.0666-1.2782-4.4151-3.0209-.116-.4645-.4646-.6971-.8131-.6971h-1.9753c-.4645 0-.8131.3486-.8131.8134v.1163c.4646 2.9043 2.3236 4.9956 6.1576 5.5767v2.7884c0 .4645.3485.8131.9293.9293h1.7428c.4648 0 .8133-.3485.9296-.9293v-2.7884c3.4855-.5811 5.809-3.0209 5.809-6.1578z" fill="#f0f"/></g></svg>

<svg width="48" height="48" viewBox="0 0 48 48" fill="none" xmlns="http://www.w3.org/2000/svg">
<g clip-path="url(#clip0_1275_22889)">
<circle cx="24" cy="24" r="24" fill="url(#paint0_linear_1275_22889)"/>
<circle cx="24" cy="24" r="22" fill="#101018"/>
<path d="M31.5683 28.1244C31.5683 24.0581 29.1285 22.6639 24.2489 22.0831C20.7634 21.6182 20.0663 20.6889 20.0663 19.0621C20.0663 17.4354 21.2282 16.3901 23.5518 16.3901C25.643 16.3901 26.805 17.0871 27.3858 18.8299C27.502 19.1784 27.8506 19.4107 28.1991 19.4107H30.0579C30.5227 19.4107 30.8712 19.0621 30.8712 18.5976V18.4813C30.4064 15.9252 28.3151 13.9502 25.643 13.718V10.9296C25.643 10.4648 25.2945 10.1162 24.7137 9.99994H22.9709C22.5061 9.99994 22.1576 10.3485 22.0413 10.9296V13.6017C18.5558 14.0665 16.3486 16.3901 16.3486 19.2947C16.3486 23.1287 18.6721 24.6389 23.5518 25.22C26.805 25.8008 27.8506 26.4979 27.8506 28.3569C27.8506 30.2159 26.2239 31.4938 24.0166 31.4938C20.9957 31.4938 19.95 30.2156 19.6015 28.4729C19.4855 28.0084 19.1369 27.7758 18.7884 27.7758H16.8131C16.3486 27.7758 16 28.1244 16 28.5892V28.7055C16.4646 31.6098 18.3236 33.7011 22.1576 34.2822V37.0706C22.1576 37.5351 22.5061 37.8837 23.0869 37.9999H24.8297C25.2945 37.9999 25.643 37.6514 25.7593 37.0706V34.2822C29.2448 33.7011 31.5683 31.2613 31.5683 28.1244V28.1244Z" fill="#FF00FF"/>
</g>
<defs>
<linearGradient id="paint0_linear_1275_22889" x1="0" y1="0" x2="48" y2="48" gradientUnits="userSpaceOnUse">
<stop stop-color="#FF00FF"/>
<stop offset="1" stop-color="#7344F3"/>
</linearGradient>
<clipPath id="clip0_1275_22889">
<rect width="48" height="48" fill="white"/>
</clipPath>
</defs>
</svg>
